X: 14458
T: Game Of Love, The
R: reel
M: 4/4
K: Edorian
|:B2 EF GFGB|AD (3FED FAA=c|BE EF GABc|dcBA Beef|
e2 EF GABc|dD (3FED FA A2|B2 BA GABc|1 dcBA BE E2:|2 dcBA BE(3EEE||
|:e4 egfe|defg afdf|eBBA Bgfe|dBAd BE (3EEE|
e2 ed egfe|defg ag (3fga|gf (3efg fedf|edBA BE E2:|

